svg/furkot/freepik/ferry.svg

<svg viewBox="0 0 512 512" xmlns="http://www.w3.org/2000/svg"><path d="m457.754 469.632c-2.304 4.045-10.471 14.618-20.66 15.539-10.624 1.075-21.555-8.857-28.748-17.305-15.975-18.74-32.154-27.111-48.052-24.986-19.532 2.586-30.617 20.48-33.587 25.958-3.072 3.508-17.229 18.228-32.179 17.639-8.909-.333-17.459-6.272-25.395-17.741-11.93-17.152-26.394-26.368-42.983-27.366-30.028-1.792-54.297 25.164-55.321 26.291l-1.306 1.817c-2.944 5.044-14.208 19.584-26.752 20.148-11.417.384-22.195-11.136-29.133-20.967-15.129-21.401-31.462-31.667-48.384-30.438-25.497 1.817-40.012 28.749-41.6 31.821l20.148 10.316c2.483-4.838 12.006-18.79 23.065-19.584 10.599-.921 21.248 10.957 28.288 20.941 14.362 20.25 30.08 30.49 46.823 30.49.563 0 1.177-.026 1.74-.051 24.525-1.024 40.909-24.372 44.57-30.08 3.2-3.328 19.584-19.149 36.506-18.176 9.446.537 17.868 6.348 25.753 17.689 12.237 17.613 26.727 26.88 43.162 27.443 28.467.768 50.278-25.651 51.2-26.803l.845-1.049.588-1.204c.052-.153 6.733-13.388 16.871-14.771 9.728-1.28 20.557 8.653 27.878 17.28 15.591 18.304 31.795 26.778 48.256 25.114 24.013-2.407 37.479-25.959 38.042-26.957z"/><path d="m64.614 408.064c22.989 0 43.981 16.538 62.362 49.126 5.76 10.189 10.214 14.26 11.955 15.258 2.381-1.382 7.603-8.115 9.6-12.365l3.738-6.4c5.145-7.219 33.715-44.697 71.782-41.497 15.949 1.228 39.015 10.06 58.573 45.312 5.069 9.216 8.627 11.212 9.293 11.238 3.302 0 9.856-5.299 14.822-11.725 5.658-11.904 20.941-38.323 47.488-42.726 23.347-3.866 45.722 9.779 66.33 40.089 5.478 8.013 9.472 11.392 11.289 12.468 1.588-1.357 3.84-4.48 4.788-6.4l18.406-21.556 2.509-33.049 37.555-277.12h-79.514v-86.067h-89.164v-42.65h-147.431v42.65h-89.139v86.067h-72.755v16.051l37.581 261.069v3.328c1.868-.384 3.763-.717 5.734-.896 1.382-.128 2.79-.205 4.198-.205zm250.087-336.358h81.408v50.38h-81.408zm-102.733 0h81.382v50.38h-81.382zm-103.706 0h81.408v50.38h-81.408zm308.276 293.171h-320.922v-195.226h320.922z"/></svg>

<svg xmlns="http://www.w3.org/2000/svg" viewBox="0 0 512 512"><path d="M457.754 469.632C455.45 473.677 447.283 484.25 437.094 485.171 426.47 486.246 415.539 476.314 408.346 467.866 392.371 449.126 376.192 440.755 360.294 442.88 340.762 445.466 329.677 463.36 326.707 468.838 323.635 472.346 309.478 487.066 294.528 486.477 285.619 486.144 277.069 480.205 269.133 468.736 257.203 451.584 242.739 442.368 226.15 441.37 196.122 439.578 171.853 466.534 170.829 467.661L169.523 469.478C166.579 474.522 155.315 489.062 142.771 489.626 131.354 490.01 120.576 478.49 113.638 468.659 98.509 447.258 82.176 436.992 65.254 438.221 39.757 440.038 25.242 466.97 23.654 470.042L43.802 480.358C46.285 475.52 55.808 461.568 66.867 460.774 77.466 459.853 88.115 471.731 95.155 481.715 109.517 501.965 125.235 512.205 141.978 512.205 142.541 512.205 143.155 512.179 143.718 512.154 168.243 511.13 184.627 487.782 188.288 482.074 191.488 478.746 207.872 462.925 224.794 463.898 234.24 464.435 242.662 470.246 250.547 481.587 262.784 499.2 277.274 508.467 293.709 509.03 322.176 509.798 343.987 483.379 344.909 482.227L345.754 481.178 346.342 479.974C346.394 479.821 353.075 466.586 363.213 465.203 372.941 463.923 383.77 473.856 391.091 482.483 406.682 500.787 422.886 509.261 439.347 507.597 463.36 505.19 476.826 481.638 477.389 480.64L457.754 469.632Z"/><path d="M64.614 408.064C87.603 408.064 108.595 424.602 126.976 457.19 132.736 467.379 137.19 471.45 138.931 472.448 141.312 471.066 146.534 464.333 148.531 460.083L152.269 453.683C157.414 446.464 185.984 408.986 224.051 412.186 240 413.414 263.066 422.246 282.624 457.498 287.693 466.714 291.251 468.71 291.917 468.736 295.219 468.736 301.773 463.437 306.739 457.011 312.397 445.107 327.68 418.688 354.227 414.285 377.574 410.419 399.949 424.064 420.557 454.374 426.035 462.387 430.029 465.766 431.846 466.842 433.434 465.485 435.686 462.362 436.634 460.442L455.04 438.886 457.549 405.837 495.104 128.717H415.59V42.65H326.426V0H178.995V42.65H89.856V128.717H17.101V144.768L54.682 405.837V409.165C56.55 408.781 58.445 408.448 60.416 408.269 61.798 408.141 63.206 408.064 64.614 408.064ZM314.701 71.706H396.109V122.086H314.701C314.701 122.086 314.701 71.706 314.701 71.706ZM211.968 71.706H293.35V122.086H211.968V71.706ZM108.262 71.706H189.67V122.086H108.262C108.262 122.086 108.262 71.706 108.262 71.706ZM416.538 364.877H95.616V169.651H416.538V364.877Z"/></svg>
